X: 82
T:Untitled. HA.081
M:3/4
L:1/4
Q:90
S:Henry Atkinson's original MS,Hartburn,N'umberland,1694.
O:England
A:Hartburn,Northumberland
H:1/4
Z:vmp.Chris Partington.Jan.2004
K:F
dAG|F2E|FD/E/F/G/|A/G/A/B/c/A/|!
dAG|F2E|FD/E/F/G/|A3:|!
|:f/g/aa|a>ba|g/f/ g/a/ g|ga2|!
a(b/a/)(g/f/)|ea2|f(g/f/)(e/d/)|^c>BA|!
f/g/aa|a>ba|g/f/g/a/g|ab2|!
a(b/a/)(g/f/|ea2|f(g/f/) (e/f/)|d2:|]
